Papirus/64x64/apps/kaku.svg

<svg xmlns="http://www.w3.org/2000/svg" width="64" height="64" version="1.1" viewBox="0 0 64 64">
 <rect style="opacity:0.2" width="56" height="56" x="-61" y="-60" rx="16.8" ry="16.8" transform="matrix(0,-1,-1,0,0,0)"/>
 <rect width="56" height="56" x="-60" y="-60" rx="16.8" ry="16.8" transform="matrix(0,-1,-1,0,0,0)" style="fill:#8f5066"/>
 <path style="opacity:0.1;fill:#ffffff" d="M 20.800781 4 C 11.493581 4 4 11.493581 4 20.800781 L 4 21.800781 C 4 12.493581 11.493581 5 20.800781 5 L 43.199219 5 C 52.506419 5 60 12.493581 60 21.800781 L 60 20.800781 C 60 11.493581 52.506419 4 43.199219 4 L 20.800781 4 z"/>
 <path d="m 44.535227,14 c -0.804797,0 -1.817062,0.130391 -2.248047,0.291016 -1.839954,0.685718 -3.268484,2.81574 -4.085937,6.091796 -1.31495,5.26982 -3.572799,7.619141 -7.324219,7.619141 -1.146038,0 -1.156802,0.229347 -0.06055,1.253906 2.128398,1.98918 3.422818,4.970146 3.773438,8.691407 0.137837,1.462425 0.342595,2.109049 0.859375,2.714843 0.372858,0.437092 0.832603,0.792969 1.02539,0.792969 0.192785,0 0.568304,-0.648593 0.833985,-1.441406 0.357064,-1.065469 0.540243,-2.945157 0.703125,-7.207031 0.18885,-4.941331 0.309236,-5.992731 0.833984,-7.347657 1.343215,-3.468221 4.345764,-5.321479 7.404297,-3.951172 1.468521,0.657943 2.73615,2.569018 4.597656,5.826172 1.380588,2.415689 2.932223,4.238282 3.609375,4.238282 0.342069,0 0.350489,-0.469415 0.01172,-0.675782 -0.688071,-0.419456 -1.201714,-3.082013 -1.289062,-6.689453 -0.08737,-3.609677 -0.120173,-3.803403 -1.009766,-5.523437 C 50.670665,15.784569 47.75872,14 44.535227,14 Z M 24.669993,27.476562 c -0.266073,0.0024 -0.57119,0.02572 -0.949219,0.06055 -1.788181,0.164709 -2.677734,0.39973 -2.677734,0.707032 0,0.100415 1.109344,1.290695 2.460937,2.646484 2.688468,2.696789 3.974946,4.843004 4.560547,7.611328 0.203363,0.69501 0.284704,1.922072 0.34375,2.916016 A 5.5,5.5 0 0 0 25.000071,46.5 a 5.5,5.5 0 0 0 5.5,5.5 5.5,5.5 0 0 0 5.5,-5.5 5.5,5.5 0 0 0 -2.816406,-4.796875 C 33.066198,40.725229 33.013743,39.519026 33.013743,39 c 0,-4.600131 -2.40339,-8.836812 -6.15625,-10.851562 -0.950344,-0.510197 -1.389284,-0.679108 -2.1875,-0.671876 z m -5.888672,1.833985 -1.517578,1.027344 c -2.22782,1.513466 -4.39863,3.972079 -5.566406,6.302734 -0.925144,1.846404 -1.03921,2.321021 -1.148438,4.736328 -0.07597,1.679654 -0.28677,3.006715 -0.5605473,3.539063 -0.5944221,1.155808 -0.2998221,2.240892 0.6757813,2.482422 0.410731,0.101683 1.378907,0.822854 2.152344,1.599609 2.589716,2.600801 7.516108,3.666471 11.916016,2.580078 1.139168,-0.281278 1.278103,-0.52945 0.605469,-1.080078 -0.241591,-0.197772 -0.756538,-0.977302 -1.146485,-1.736328 -1.333595,-2.595876 -0.837236,-5.824952 1.220703,-7.908203 0.933756,-0.945231 0.988283,-1.097052 0.826172,-2.263672 -0.0955,-0.68771 -0.490028,-1.872053 -0.880859,-2.632813 -0.796503,-1.550432 -4.150404,-5.172224 -5.617188,-6.066406 z M 16.000071,41 c 1.10457,0 2,0.895431 2,2 0,1.10457 -0.89543,2 -2,2 -1.104569,0 -2,-0.89543 -2,-2 0,-1.104569 0.895431,-2 2,-2 z m 14.5,3 c 1.380711,0 2.5,1.119289 2.5,2.5 0,1.380711 -1.119289,2.5 -2.5,2.5 -1.380711,0 -2.5,-1.119289 -2.5,-2.5 0,-1.380711 1.119289,-2.5 2.5,-2.5 z" style="opacity:0.2"/>
 <path style="fill:#ffffff" d="m 44.535227,13 c -0.804797,0 -1.817062,0.130391 -2.248047,0.291016 -1.839954,0.685718 -3.268484,2.81574 -4.085937,6.091796 -1.31495,5.26982 -3.572799,7.619141 -7.324219,7.619141 -1.146038,0 -1.156802,0.229347 -0.06055,1.253906 2.128398,1.98918 3.422818,4.970146 3.773438,8.691407 0.137837,1.462425 0.342595,2.109049 0.859375,2.714843 0.372858,0.437092 0.832603,0.792969 1.02539,0.792969 0.192785,0 0.568304,-0.648593 0.833985,-1.441406 0.357064,-1.065469 0.540243,-2.945157 0.703125,-7.207031 0.18885,-4.941331 0.309236,-5.992731 0.833984,-7.347657 1.343215,-3.468221 4.345764,-5.321479 7.404297,-3.951172 1.468521,0.657943 2.73615,2.569018 4.597656,5.826172 1.380588,2.415689 2.932223,4.238282 3.609375,4.238282 0.342069,0 0.350489,-0.469415 0.01172,-0.675782 -0.688071,-0.419456 -1.201714,-3.082013 -1.289062,-6.689453 -0.08737,-3.609677 -0.120173,-3.803403 -1.009766,-5.523437 C 50.670665,14.784569 47.75872,13 44.535227,13 Z M 24.669993,26.476562 c -0.266073,0.0024 -0.57119,0.02572 -0.949219,0.06055 -1.788181,0.164709 -2.677734,0.39973 -2.677734,0.707032 0,0.100415 1.109344,1.290695 2.460937,2.646484 2.688468,2.696789 3.974946,4.843004 4.560547,7.611328 0.203363,0.69501 0.284704,1.922072 0.34375,2.916016 A 5.5,5.5 0 0 0 25.000071,45.5 a 5.5,5.5 0 0 0 5.5,5.5 5.5,5.5 0 0 0 5.5,-5.5 5.5,5.5 0 0 0 -2.816406,-4.796875 C 33.066198,39.725229 33.013743,38.519026 33.013743,38 c 0,-4.600131 -2.40339,-8.836812 -6.15625,-10.851562 -0.950344,-0.510197 -1.389284,-0.679108 -2.1875,-0.671876 z m -5.888672,1.833985 -1.517578,1.027344 c -2.22782,1.513466 -4.39863,3.972079 -5.566406,6.302734 -0.925144,1.846404 -1.03921,2.321021 -1.148438,4.736328 -0.07597,1.679654 -0.28677,3.006715 -0.5605473,3.539063 -0.5944221,1.155808 -0.2998221,2.240892 0.6757813,2.482422 0.410731,0.101683 1.378907,0.822854 2.152344,1.599609 2.589716,2.600801 7.516108,3.666471 11.916016,2.580078 1.139168,-0.281278 1.278103,-0.52945 0.605469,-1.080078 -0.241591,-0.197772 -0.756538,-0.977302 -1.146485,-1.736328 -1.333595,-2.595876 -0.837236,-5.824952 1.220703,-7.908203 0.933756,-0.945231 0.988283,-1.097052 0.826172,-2.263672 -0.0955,-0.68771 -0.490028,-1.872053 -0.880859,-2.632813 -0.796503,-1.550432 -4.150404,-5.172224 -5.617188,-6.066406 z M 16.000071,40 c 1.10457,0 2,0.895431 2,2 0,1.10457 -0.89543,2 -2,2 -1.104569,0 -2,-0.89543 -2,-2 0,-1.104569 0.895431,-2 2,-2 z m 14.5,3 c 1.380711,0 2.5,1.119289 2.5,2.5 0,1.380711 -1.119289,2.5 -2.5,2.5 -1.380711,0 -2.5,-1.119289 -2.5,-2.5 0,-1.380711 1.119289,-2.5 2.5,-2.5 z"/>
</svg>

<svg xmlns="http://www.w3.org/2000/svg" width="64" height="64" version="1.1" viewBox="0 0 64 64">
 <path d="M 60,44.200002 V 21.799998 C 60,12.4928 52.5072,5 43.200002,5 h -22.4 C 11.4928,5 4,12.4928 4,21.799998 V 44.200002 C 4,53.5072 11.4928,61 20.800002,61 h 22.4 C 52.5072,61 60,53.5072 60,44.200002 Z" style="opacity:0.2"/>
 <path style="fill:#4d4d4d" d="M 59.3,42.920002 V 21.079998 C 59.3,12.00548 51.99452,4.6999996 42.92,4.6999996 H 21.08 c -9.07452,0 -16.3800004,7.3054804 -16.3800004,16.3799984 V 42.920002 C 4.6999996,51.99452 12.00548,59.3 21.08,59.3 h 21.84 c 9.07452,0 16.38,-7.30548 16.38,-16.379998 z"/>
 <g transform="matrix(0.40975804,0,0,0.40975804,3.9999998,3.9999998)">
  <path d="m 122.60742,10.060547 0.94141,18.425781 6.67578,-9.595703 c -2.10916,-3.298828 -4.67727,-6.270196 -7.61719,-8.830078 z" style="fill:#612e18"/>
  <path d="M 104.39844,0.93359375 76.03125,21.814453 123.54883,28.486328 122.60742,10.060547 C 117.5,5.6133569 111.27783,2.4152348 104.39844,0.93359375 Z" style="fill:#5c312d"/>
  <path d="M 80.095703,0 76.03125,21.814453 104.39844,0.93359375 C 101.58517,0.32768866 98.665656,0 95.666016,0 Z" style="fill:#37232c"/>
  <path d="M 47.335938,0 76.03125,21.814453 80.095703,0 Z" style="fill:#3e2941"/>
  <path d="M 46.017578,0 54.271484,40.160156 76.03125,21.814453 47.335938,0 Z" style="fill:#58405b"/>
  <path d="M 45.341797,0 30.732422,40.164062 54.271484,40.160156 46.017578,0 Z" style="fill:#6d5174"/>
  <path d="M 44.050781,0 15.511719,19.683594 30.732422,40.164062 45.341797,0 Z" style="fill:#5d4e75"/>
  <path d="m 15.511719,19.683594 -14.67382838,13 C 0.37019144,34.971025 0.10332347,37.332529 0.03125,39.744141 l 30.701172,0.419921 z" style="fill:#665f88"/>
  <path d="M 15.511719,19.683594 5.0507812,21.220703 C 3.1095404,24.754025 1.6717061,28.605554 0.83789062,32.683594 Z" style="fill:#4c5378"/>
  <path d="M 41,0 C 31.239168,0 22.301107,3.3832276 15.275391,9.0371094 L 15.511719,19.683594 44.050781,0 Z" style="fill:#312c47"/>
  <path d="M 15.275391,9.0371094 C 13.048686,10.82903 11.013522,12.846177 9.2070312,15.060547 l 6.3046878,4.623047 z" style="fill:#3c3c5c"/>
  <path d="m 9.2070312,15.060547 c -1.5631242,1.916055 -2.9566394,3.976702 -4.15625,6.160156 L 15.511719,19.683594 Z" style="fill:#454669"/>
  <path d="m 130.22461,18.890625 -6.67578,9.595703 9.91211,35.791016 3.20508,-21.761719 V 41 c 0,-8.157004 -2.3667,-15.736309 -6.44141,-22.109375 z" style="fill:#6e2d34"/>
  <path d="m 136.66602,42.515625 -3.20508,21.761719 3.20508,4.86914 z" style="fill:#90131b"/>
  <path d="m 133.46094,64.277344 -20.72266,25.060547 23.92774,-5.56836 V 69.146484 Z" style="fill:#711c21"/>
  <path d="m 136.66602,83.769531 -23.92774,5.56836 20.27734,23.291019 c 2.33902,-5.16555 3.6504,-10.90427 3.6504,-16.962894 z" style="fill:#3a0e0c"/>
  <path d="m 112.73828,89.337891 3.65625,38.490229 4.56836,0.13672 c 5.15949,-4.04043 9.31525,-9.29041 12.05273,-15.33593 z" style="fill:#5b180c"/>
  <path d="m 116.39453,127.82812 0.0117,3.23633 c 1.59148,-0.93149 3.11262,-1.96878 4.55664,-3.09961 z" style="fill:#3e0c05"/>
  <path d="m 102.95898,119.51367 7.00782,14.60547 c 2.24892,-0.83209 4.39836,-1.86003 6.43945,-3.05469 l -0.0117,-3.23633 z" style="fill:#81210f"/>
  <path d="m 102.95898,119.51367 -17.550777,17.15235 h 10.257813 c 5.034914,0 9.851954,-0.90083 14.300784,-2.54688 z" style="fill:#af5246"/>
  <path d="M 102.95898,119.51367 63.6875,136.3125 63.320312,136.66602 H 85.408203 Z" style="fill:#c98173"/>
  <path d="M 81.421875,89.322266 63.6875,136.3125 102.95898,119.51367 Z" style="fill:#e1816d"/>
  <path d="M 50.386302,98.461191 63.6875,136.3125 81.421875,89.322266 Z" style="fill:#eeb9bd"/>
  <path style="fill:#ddb0d9" d="M 50.386302,98.461191 38.722589,110.77557 63.6875,136.3125 Z"/>
  <path d="m 38.722656,110.77539 -3.919922,25.42773 c 2.020528,0.30389 4.089396,0.4629 6.197266,0.4629 H 63.320312 L 63.6875,136.3125 Z" style="fill:#ebc3e2"/>
  <path d="m 5.015625,109.51367 25.199219,25.72071 c 1.497638,0.40462 3.026358,0.7339 4.58789,0.96874 l 3.919922,-25.42773 z" style="fill:#a576cf"/>
  <path d="m 5.015625,109.51367 0.796875,7.25586 c 5.368171,8.95946 14.062853,15.6714 24.402344,18.46485 z" style="fill:#b77abf"/>
  <path d="m 5.015625,109.51367 -2.3203125,0.82422 c 0.8562557,2.24624 1.8980748,4.39695 3.1171875,6.43164 z" style="fill:#ab5ca1"/>
  <path d="m 1.9355469,108.17773 c 0.2321156,0.72975 0.48868,1.44901 0.7597656,2.16016 l 2.3203125,-0.82422 z" style="fill:#b88ecc"/>
  <path d="m 5.015625,109.51367 33.707031,1.26172 -6.905035,-40.181672 z" style="fill:#b88ecc"/>
  <path d="m 0,90.679688 v 4.986328 c 0,4.367744 0.6817751,8.569974 1.9355469,12.511714 l 3.0800781,1.33594 z" style="fill:#9550b5"/>
  <path d="M 19.013672,62.308594 0,65.751953 v 24.927735 l 5.015625,18.833982 z" style="fill:#9165a8"/>
  <path d="M 5.015625,109.51367 31.817621,70.593718 19.013672,62.308594 Z" style="fill:#9d5cba"/>
  <path style="fill:#836492" d="M 30.733074,40.164956 42.004843,57.425021 19.013672,62.308594 Z"/>
  <path d="M 0,54.759766 V 65.751953 L 19.013672,62.308594 Z" style="fill:#826f9e"/>
  <path d="M 30.732422,40.164062 0,54.255859 v 0.503907 l 19.013672,7.548828 z" style="fill:#665e89"/>
  <path d="M 0.03125,39.744141 C 0.01874889,40.162434 0,40.57857 0,41 V 54.255859 L 30.732422,40.164062 Z" style="fill:#5f577f"/>
  <path style="fill:#846288" d="M 30.733074,40.164956 42.004843,57.425021 54.271484,40.160156 Z"/>
  <path d="M 76.031369,21.814712 78.367136,60.646829 54.271484,40.160156 Z" style="fill:#825a67"/>
  <path style="fill:#97605e" d="m 76.03125,21.814453 2.335886,38.832376 24.564264,4.169577 z"/>
  <path d="M 102.9314,64.816406 76.031369,21.814712 123.54798,28.485639 Z" style="fill:#874645"/>
  <path d="M 123.54798,28.485639 102.9314,64.816406 133.46094,64.277344 Z" style="fill:#8d2635"/>
  <path style="fill:#943837" d="M 112.73828,89.337891 102.9314,64.816406 133.46094,64.277344 Z"/>
  <path style="fill:#a45c50" d="m 102.9314,64.816406 9.80688,24.521485 -31.316405,-0.01563 z"/>
  <path d="M 102.95898,119.51367 81.421875,89.322266 112.73828,89.337891 Z" style="fill:#ab4c39"/>
  <path style="fill:#963b20" d="m 112.73828,89.337891 -9.7793,30.175779 13.4362,8.31543 z"/>
  <path style="fill:#b86d5f" d="M 81.421875,89.322266 78.367136,60.646829 102.9314,64.816406 Z"/>
  <path d="M 31.817621,70.593718 19.013672,62.308594 42.004843,57.425021 Z" style="fill:#997599"/>
  <path d="M 54.271484,40.160156 60.433764,70.996863 42.004843,57.425021 Z" style="fill:#936982"/>
  <path d="M 31.817621,70.593718 42.004843,57.425021 60.433764,70.996863 Z" style="fill:#856385"/>
  <path style="fill:#c38e97" d="M 50.386302,98.461191 31.817621,70.593718 81.421875,89.322266 Z"/>
  <path style="fill:#b37b96" d="M 81.421875,89.322261 60.433764,70.996863 31.817621,70.593718 Z"/>
  <path d="M 60.433764,70.996863 54.271484,40.160156 78.367136,60.646829 Z" style="fill:#9c6c71"/>
  <path d="M 60.433764,70.996863 78.367136,60.646829 81.421875,89.322266 Z" style="fill:#e5a98e"/>
  <path d="M 31.817621,70.593718 38.722589,110.77557 50.386302,98.461191 Z" style="fill:#b48dd7"/>
 </g>
 <path style="opacity:0.1;fill:#ffffff" d="M 20.800781 4 C 11.493578 4 4 11.493582 4 20.800781 L 4 21.800781 C 4 12.493582 11.493578 5 20.800781 5 L 43.199219 5 C 52.506417 5 60 12.493582 60 21.800781 L 60 20.800781 C 60 11.493582 52.506417 4 43.199219 4 L 20.800781 4 z"/>
 <path d="m 44.535156,14 c -0.804797,0 -1.817062,0.130391 -2.248047,0.291016 -1.839954,0.685718 -3.268484,2.81574 -4.085937,6.091796 -1.31495,5.26982 -3.572799,7.619141 -7.324219,7.619141 -1.146038,0 -1.156802,0.229347 -0.06055,1.253906 2.128398,1.98918 3.422818,4.970146 3.773438,8.691407 0.137837,1.462425 0.342595,2.109049 0.859375,2.714843 0.372858,0.437092 0.832603,0.792969 1.02539,0.792969 0.192785,0 0.568304,-0.648593 0.833985,-1.441406 0.357064,-1.065469 0.540243,-2.945157 0.703125,-7.207031 0.18885,-4.941331 0.309236,-5.992731 0.833984,-7.347657 1.343215,-3.468221 4.345764,-5.321479 7.404297,-3.951172 1.468521,0.657943 2.73615,2.569018 4.597656,5.826172 1.380588,2.415689 2.932223,4.238282 3.609375,4.238282 0.342069,0 0.350489,-0.469415 0.01172,-0.675782 -0.688071,-0.419456 -1.201714,-3.082013 -1.289062,-6.689453 -0.08737,-3.609677 -0.120173,-3.803403 -1.009766,-5.523437 C 50.670594,15.784569 47.758649,14 44.535156,14 Z M 24.669922,27.476562 c -0.266073,0.0024 -0.57119,0.02572 -0.949219,0.06055 -1.788181,0.164709 -2.677734,0.39973 -2.677734,0.707032 0,0.100415 1.109344,1.290695 2.460937,2.646484 2.688468,2.696789 3.974946,4.843004 4.560547,7.611328 0.203363,0.69501 0.284704,1.922072 0.34375,2.916016 A 5.5,5.5 0 0 0 25,46.5 5.5,5.5 0 0 0 30.5,52 5.5,5.5 0 0 0 36,46.5 5.5,5.5 0 0 0 33.183594,41.703125 C 33.066127,40.725229 33.013672,39.519026 33.013672,39 c 0,-4.600131 -2.40339,-8.836812 -6.15625,-10.851562 -0.950344,-0.510197 -1.389284,-0.679108 -2.1875,-0.671876 z m -5.888672,1.833985 -1.517578,1.027344 c -2.22782,1.513466 -4.39863,3.972079 -5.566406,6.302734 -0.925144,1.846404 -1.03921,2.321021 -1.148438,4.736328 -0.07597,1.679654 -0.28677,3.006715 -0.5605468,3.539063 -0.5944221,1.155808 -0.2998221,2.240892 0.6757808,2.482422 0.410731,0.101683 1.378907,0.822854 2.152344,1.599609 2.589716,2.600801 7.516108,3.666471 11.916016,2.580078 1.139168,-0.281278 1.278103,-0.52945 0.605469,-1.080078 -0.241591,-0.197772 -0.756538,-0.977302 -1.146485,-1.736328 -1.333595,-2.595876 -0.837236,-5.824952 1.220703,-7.908203 0.933756,-0.945231 0.988283,-1.097052 0.826172,-2.263672 -0.0955,-0.68771 -0.490028,-1.872053 -0.880859,-2.632813 -0.796503,-1.550432 -4.150404,-5.172224 -5.617188,-6.066406 z M 16,41 c 1.10457,0 2,0.895431 2,2 0,1.10457 -0.89543,2 -2,2 -1.104569,0 -2,-0.89543 -2,-2 0,-1.104569 0.895431,-2 2,-2 z m 14.5,3 C 31.880711,44 33,45.119289 33,46.5 33,47.880711 31.880711,49 30.5,49 29.119289,49 28,47.880711 28,46.5 28,45.119289 29.119289,44 30.5,44 Z" style="opacity:0.2"/>
 <path style="fill:#ffffff" d="M 44.535156 13 C 43.730359 13 42.718094 13.130391 42.287109 13.291016 C 40.447155 13.976734 39.018625 16.106756 38.201172 19.382812 C 36.886222 24.652632 34.628373 27.001953 30.876953 27.001953 C 29.730915 27.001953 29.720151 27.2313 30.816406 28.255859 C 32.944804 30.245039 34.239224 33.226005 34.589844 36.947266 C 34.727681 38.409691 34.932439 39.056315 35.449219 39.662109 C 35.822077 40.099201 36.281822 40.455078 36.474609 40.455078 C 36.667394 40.455078 37.042913 39.806485 37.308594 39.013672 C 37.665658 37.948203 37.848837 36.068515 38.011719 31.806641 C 38.200569 26.86531 38.320955 25.81391 38.845703 24.458984 C 40.188918 20.990763 43.191467 19.137505 46.25 20.507812 C 47.718521 21.165755 48.98615 23.07683 50.847656 26.333984 C 52.228244 28.749673 53.779879 30.572266 54.457031 30.572266 C 54.7991 30.572266 54.80752 30.102851 54.46875 29.896484 C 53.780679 29.477028 53.267036 26.814471 53.179688 23.207031 C 53.092318 19.597354 53.059515 19.403628 52.169922 17.683594 C 50.670594 14.784569 47.758649 13 44.535156 13 z M 24.669922 26.476562 C 24.403849 26.478963 24.098732 26.502279 23.720703 26.537109 C 21.932522 26.701818 21.042969 26.936839 21.042969 27.244141 C 21.042969 27.344556 22.152313 28.534836 23.503906 29.890625 C 26.192374 32.587414 27.478852 34.733629 28.064453 37.501953 C 28.267816 38.196963 28.349157 39.424025 28.408203 40.417969 A 5.5 5.5 0 0 0 25 45.5 A 5.5 5.5 0 0 0 30.5 51 A 5.5 5.5 0 0 0 36 45.5 A 5.5 5.5 0 0 0 33.183594 40.703125 C 33.066127 39.725229 33.013672 38.519026 33.013672 38 C 33.013672 33.399869 30.610282 29.163188 26.857422 27.148438 C 25.907078 26.638241 25.468138 26.46933 24.669922 26.476562 z M 18.78125 28.310547 L 17.263672 29.337891 C 15.035852 30.851357 12.865042 33.30997 11.697266 35.640625 C 10.772122 37.487029 10.658056 37.961646 10.548828 40.376953 C 10.472858 42.056607 10.262058 43.383668 9.9882812 43.916016 C 9.3938591 45.071824 9.6884591 46.156908 10.664062 46.398438 C 11.074793 46.500121 12.042969 47.221292 12.816406 47.998047 C 15.406122 50.598848 20.332514 51.664518 24.732422 50.578125 C 25.87159 50.296847 26.010525 50.048675 25.337891 49.498047 C 25.0963 49.300275 24.581353 48.520745 24.191406 47.761719 C 22.857811 45.165843 23.35417 41.936767 25.412109 39.853516 C 26.345865 38.908285 26.400392 38.756464 26.238281 37.589844 C 26.142781 36.902134 25.748253 35.717791 25.357422 34.957031 C 24.560919 33.406599 21.207018 29.784807 19.740234 28.890625 L 18.78125 28.310547 z M 16 40 C 17.10457 40 18 40.895431 18 42 C 18 43.10457 17.10457 44 16 44 C 14.895431 44 14 43.10457 14 42 C 14 40.895431 14.895431 40 16 40 z M 30.5 43 C 31.880711 43 33 44.119289 33 45.5 C 33 46.880711 31.880711 48 30.5 48 C 29.119289 48 28 46.880711 28 45.5 C 28 44.119289 29.119289 43 30.5 43 z"/>
</svg>
